X:4
T:Tipstaff Strathspey
C:Robert Petrie
S:Petrie's Collection of Strathspey Reels and Country Dances &c., 1790
Z:Steve Wyrick , 3/20/04
N:Petrie's First Collection, page 3
L:1/8
V:1 name = "violin"
V:2 name = "bass" clef=bass middle=d transpose=-24
M:C
R:Strathspey
K:G
[V:1] c|B<Gg>G DG-GA/B/|c<Aa>A EA-A.c|dB-Bd ec-ce|g>dTc>B (TB2A>)c|
[V:2] z|g2 b2  z2 b2   |f2 f2  c2 f2 |g4    c4   |B2  c2    d2f2  |
[V:1]   BGgG   D(G G)A/B/|cAaA EA-Ac|Bg-ge (f/e/f/g/) ag|fd f/e/d/^c/ dDd||
[V:2]   g2b2   z2  g2    |f4   c2 f2|g2 c2  d2        fg|a2 A2        d3 ||
[V:1] d|(d<=f)(Tf>e) (Ted)(Tdc)|cBA^G A2    A,A/B/|c<eTe>d d>cB<d|g<dTc>B TB2  Az|
[V:2] z|^g4            g2   e2 |e2E2  Ac/e/ az    |a2  f2  g4    |b2  c'2  d'2 d2|
[V:1]    G,<G-TG>B A,<ATA>c|B,<TBB>d C<Tc-c>e|B>de>f g>dTc>B|TA>GA<B G2 G,2|]
[V:2]    Bg/f/ gG  fefd    |g4       c4      |g2 c'2 b2  c'2| d'2d2  g2 G2 |]
% The above code was written using Phil Taylor's BarFly abc reader/converter/player program.
% Other abc converters (e.g. abc2ps) may require everything after the word "bass" to be
% deleted in the V:2 header line for correct display of notes the bass clef, or require that
% the M: and K: fields be repeated directly under the V:1 header line to display the meter
% and key signature on both staffs.  Some abc MIDI players (e.g. abc2midi) will not play
% multiple-voiced abc code.  -SW
